src/icons/main-link.svg

<?xml version="1.0" encoding="UTF-8"?>
<svg width="14px" height="14px" viewBox="0 0 14 14" version="1.1" xmlns="http://www.w3.org/2000/svg" xmlns:xlink="http://www.w3.org/1999/xlink">
    <!-- Generator: Sketch 59 (86127) - https://sketch.com -->
    <title>HDL/Icon/Standard/link</title>
    <desc>Created with Sketch.</desc>
    <g id="Colors" stroke="none" stroke-width="1" fill="none" fill-rule="evenodd">
        <g id="Main-Icons" transform="translate(-121.000000, -688.000000)" fill="#4D5969">
            <g id="Link" transform="translate(100.000000, 670.000000)">
                <g id="HDL/Icon/Standard/link" transform="translate(21.000000, 18.000000)">
                    <path d="M7.595,8.386 L4.487,11.494 L3.787,12.194 C3.535,12.446 3.185,12.6 2.8,12.6 C2.03,12.6 1.4,11.97 1.4,11.2 C1.4,10.815 1.554,10.465 1.813,10.213 L5.621,6.405 C5.383,6.342 5.152,6.3 4.9,6.3 C4.123,6.3 3.437,6.622 2.926,7.126 L2.919,7.119 L0.819,9.219 L0.826,9.226 C0.322,9.737 0,10.423 0,11.2 C0,12.747 1.253,14 2.8,14 C3.577,14 4.263,13.678 4.774,13.174 L4.781,13.181 L6.881,11.081 L6.874,11.074 C7.378,10.563 7.7,9.877 7.7,9.1 C7.7,8.848 7.658,8.617 7.595,8.386 Z M14,2.8 C14,1.253 12.747,0 11.2,0 C10.423,0 9.737,0.322 9.226,0.826 L9.219,0.819 L7.119,2.919 L7.126,2.926 C6.622,3.437 6.3,4.123 6.3,4.9 C6.3,5.152 6.342,5.383 6.405,5.614 L9.513,2.506 L10.213,1.806 C10.465,1.554 10.815,1.4 11.2,1.4 C11.97,1.4 12.6,2.03 12.6,2.8 C12.6,3.185 12.446,3.535 12.187,3.787 L8.379,7.595 C8.617,7.658 8.848,7.7 9.1,7.7 C9.877,7.7 10.563,7.378 11.074,6.874 L11.081,6.881 L13.181,4.781 L13.174,4.774 C13.678,4.263 14,3.577 14,2.8 Z M3.5,9.8 C3.5,10.185 3.815,10.5 4.2,10.5 C4.396,10.5 4.571,10.423 4.697,10.297 L10.297,4.697 C10.423,4.571 10.5,4.396 10.5,4.2 C10.5,3.815 10.185,3.5 9.8,3.5 C9.604,3.5 9.429,3.577 9.303,3.703 L7.903,5.103 L6.503,6.503 L5.103,7.903 L3.703,9.303 C3.577,9.429 3.5,9.604 3.5,9.8 Z" id="Shape"></path>
                </g>
            </g>
        </g>
    </g>
</svg>

<?xml version="1.0" encoding="utf-8"?>
<!-- Generator: Adobe Illustrator 20.1.0, SVG Export Plug-In . SVG Version: 6.00 Build 0)  -->
<svg version="1.1" id="Layer_1" xmlns="http://www.w3.org/2000/svg" xmlns:xlink="http://www.w3.org/1999/xlink" x="0px" y="0px"
	 viewBox="0 0 14 14" style="enable-background:new 0 0 14 14;" xml:space="preserve">
<style type="text/css">
	.st0{fill:#4D5969;}
</style>
<title>HDL/Icon/Standard/link</title>
<desc>Created with Sketch.</desc>
<g id="Colors">
	<g id="Main-Icons" transform="translate(-121.000000, -688.000000)">
		<g id="Link" transform="translate(100.000000, 670.000000)">
			<g id="HDL_x2F_Icon_x2F_Standard_x2F_link" transform="translate(21.000000, 18.000000)">
				<path id="Shape" class="st0" d="M7.6,8.4l-3.1,3.1l-0.7,0.7c-0.3,0.3-0.6,0.4-1,0.4c-0.8,0-1.4-0.6-1.4-1.4c0-0.4,0.2-0.7,0.4-1
					l3.8-3.8C5.4,6.3,5.2,6.3,4.9,6.3c-0.8,0-1.5,0.3-2,0.8l0,0L0.8,9.2l0,0C0.3,9.7,0,10.4,0,11.2C0,12.7,1.3,14,2.8,14
					c0.8,0,1.5-0.3,2-0.8l0,0l2.1-2.1l0,0c0.5-0.5,0.8-1.2,0.8-2C7.7,8.8,7.7,8.6,7.6,8.4z M14,2.8C14,1.3,12.7,0,11.2,0
					c-0.8,0-1.5,0.3-2,0.8l0,0L7.1,2.9l0,0c-0.5,0.5-0.8,1.2-0.8,2c0,0.3,0,0.5,0.1,0.7l3.1-3.1l0.7-0.7c0.3-0.3,0.6-0.4,1-0.4
					c0.8,0,1.4,0.6,1.4,1.4c0,0.4-0.2,0.7-0.4,1L8.4,7.6c0.2,0.1,0.5,0.1,0.7,0.1c0.8,0,1.5-0.3,2-0.8l0,0l2.1-2.1l0,0
					C13.7,4.3,14,3.6,14,2.8z M3.5,9.8c0,0.4,0.3,0.7,0.7,0.7c0.2,0,0.4-0.1,0.5-0.2l5.6-5.6c0.1-0.1,0.2-0.3,0.2-0.5
					c0-0.4-0.3-0.7-0.7-0.7c-0.2,0-0.4,0.1-0.5,0.2L7.9,5.1L6.5,6.5L5.1,7.9L3.7,9.3C3.6,9.4,3.5,9.6,3.5,9.8z"/>
			</g>
		</g>
	</g>
</g>
</svg>
